packages/admin/admin-icons/icons/chevron-left.svg

<svg xmlns="http://www.w3.org/2000/svg" width="16" height="16" viewBox="0 0 16 16"><path fill="#242424" fill-rule="evenodd" d="M10.8312538,3.16271845 C10.6312582,2.96986695 10.3208082,2.94843901 10.0962672,3.09843462 L10.0164749,3.16271845 L5,8 L10.0164749,12.8372815 C10.2414699,13.0542395 10.6062588,13.0542395 10.8312538,12.8372815 C11.0312493,12.64443 11.053471,12.3450696 10.8979189,12.1285494 L10.8312538,12.0516073 L6.62943474,8 L10.8312538,3.94839266 C11.0312493,3.75554115 11.053471,3.45618071 10.8979189,3.23966055 L10.8312538,3.16271845 Z"/></svg>

<svg width="16" height="16" fill="none" viewBox="0 0 16 16">
  <path fill="#242424" fill-rule="evenodd" d="M10.831 3.163a.592.592 0 0 0-.735-.065l-.08.065L5 8l5.017 4.837a.59.59 0 0 0 .814 0 .541.541 0 0 0 .067-.708l-.067-.077L6.63 8l4.202-4.052a.541.541 0 0 0 .067-.708l-.067-.077Z" clip-rule="evenodd"/>
</svg>
